X: 1
T: New Land, The
M: 3/4
L: 1/8
R: waltz
C: Otis Tomas 
K: Fmaj
|: F3 E FG | A c2c cd | c2 cA G2 | F2 FG AF | B2 BA GA | Bd2 d df | d2 dB G2 | G2 GA (3BAG |
A3 F AF | Ac2 c fg | (3aaa ag f2 | d2 de fg | (3aaa ag f2 | ge3 c2 | Ad d2 c2 |[1 d2 dc AG :|[2 d2 de fg ||
|: (3aaa ag ab | a2 g2 f2 | B2 BA Bc | B2 c2 d2 | g2 gf ga | g2 f2 e2 | A2 AG AB | A2B2c2|
f2 fe fg | f2e2d2 | G2 GF GA | G2 F2 D2 | cA3F2 | GE3C2 | A,D D2 C2 | D6 :|
